svgs/thin/lock.svg

<svg xmlns="http://www.w3.org/2000/svg" viewBox="0 0 448 512"><!--! Font Awesome Pro 6.5.1 by @fontawesome - https://fontawesome.com License - https://fontawesome.com/license (Commercial License) Copyright 2023 Fonticons, Inc. --><path d="M112 128v64H336V128c0-61.9-50.1-112-112-112s-112 50.1-112 112zM96 192V128C96 57.3 153.3 0 224 0s128 57.3 128 128v64h32c35.3 0 64 28.7 64 64V448c0 35.3-28.7 64-64 64H64c-35.3 0-64-28.7-64-64V256c0-35.3 28.7-64 64-64H96zm0 16H64c-26.5 0-48 21.5-48 48V448c0 26.5 21.5 48 48 48H384c26.5 0 48-21.5 48-48V256c0-26.5-21.5-48-48-48H352 336 112 96z"/></svg>

<svg xmlns="http://www.w3.org/2000/svg" viewBox="0 0 448 512"><!--! Font Awesome Pro 6.1.1 by @fontawesome - https://fontawesome.com License - https://fontawesome.com/license (Commercial License) Copyright 2022 Fonticons, Inc. --><path d="M96 192V128C96 57.31 153.3 0 224 0C294.7 0 352 57.31 352 128V192H384C419.3 192 448 220.7 448 256V448C448 483.3 419.3 512 384 512H64C28.65 512 0 483.3 0 448V256C0 220.7 28.65 192 64 192H96zM112 192H336V128C336 66.14 285.9 16 224 16C162.1 16 112 66.14 112 128V192zM64 208C37.49 208 16 229.5 16 256V448C16 474.5 37.49 496 64 496H384C410.5 496 432 474.5 432 448V256C432 229.5 410.5 208 384 208H64z"/></svg>
